!!!!SEGMENT: pl-wumfc--r282--002-008_paderewski-ignacy-jan--exercises-2-exercise-8.krn
!!!cenid: 18xx:3183
!!!COM: Paderewski, Ignacy Jan
!!!COM-rismID: pe30029943
!!!CDT: 1860/11/18-1941/06/29
!!!CNT: Polish
!!!GTL: [Exercises 2]
!!!OTL: [Exercise] 8
!!!OMV: 008
!!!PDT:
!!!AGN:
!!!YEC: Copyright 2022 Narodowy Instytut Fryderyka Chopina (https://polishscores.org)
!!!YEM: License CC-BY-4.0 (https://creativecommons.org/licenses/by/4.0)
!!!SMS-siglum: PL-Wumfc
!!!SMS-shelfmark: R282
!!!SMS-shelfwork: 002-008 G
!!!SMS-variant:
!!!SMS-altvar:
!!!NIFC-rismSourceID: 1001158933
!!!NIFC-rismChildID: 1001158933
!!!NIFC-islandoraID: pl-wumfc:419
!!!URL-pdf-islandora: https://repozytorium.nifc.pl/islandora/object/pl-wumfc%3A419/datastream/PDF/view
!!!URL-scan: https://polish.musicsources.pl/pl/lokalizacje/galeria/rekopisy/4702 @EN{Scan on Polish Music Sources Website} @PL{Skany w portalu Dziedzictwo Muzyki Polskiej w otwartym dostępie}
!!!IIIF:
!!!ONB-nifc: UWAGA: druga grupa ćwiczeń od skanu 0008
!!!AIN: 2 piano
!!!key: G
**kern	**kern
*part2	*part1
*staff2	*staff1
*I"[Pianoforte]	*I"[Pianoforte]
*I'	*I'
*mI"Pianoforte	*mI"Pianoforte
*mI'pf	*mI'pf
*Ipiano	*Ipiano
*ICklav	*ICklav
*IGsolo	*IGsolo
*clefF4	*clefG2
*k[f#]	*k[f#]
*G:	*G:
!LO:MO:mod=*M4/2	!LO:MO:mod=*M4/2
*M2/1	*M2/1
*	*
*	*^
!	!LO:TX:b:t=C. f.	!
4G\	2g/	2G\
4F#\	.	.
=1	=1	=1
*^	*	*
4E\	2B/	2g/	2ryy
4G\	.	.	.
4A\	2A/	2f#/	2ryy
4D\	.	.	.
4E\	1ryy	2e/	2c\
4F#\	.	.	.
4G\	.	2d/	2B\
4F#\	.	.	.
*v	*v	*	*
=2	=2	=2
4E\	2g/	2B\
4D\	.	.
4C/	2a/	2c\
4AA/	.	.
!LO:SIC:o=2GG;\	!	!LO:SIC:o=2d;\
2GG;	2b;/	2d
4G\	2b/	2g\
4A\	.	.
=3	=3	=3
4B\	2b/	2g\
4c\	.	.
4d\	2b/	2d\
4BB/	.	.
4C/	2a/	[2e\
4D\	.	.
4E\	2g/	2e\]
!LO:SIC:o=4GG\	!	!
4GG	.	.
=4	=4	=4
!LO:SIC:o=4AA\	!	!
4AA	2cc/	2c\
4E\	.	.
4D\	2b/	[2d\
4E\	.	.
!	!	!LO:SIC:o=2d;\]
2F#;\	2a;/	2d]
4E\	2g/	2B\
4D\	.	.
=5	=5	=5
!LO:SIC:o=4C\	!	!
4C	2a/	2c\
!LO:SIC:o=4AA\	!	!
4AA	.	.
!LO:SIC:o=4GG\	!	!
4GG	2b/	2B\
4G\	.	.
4F#\	2a/	2d\
4D\	.	.
4E\	2g/	2B\
4G\	.	.
!!LO:LB:g=original
=6	=6	=6
*^	*	*
4A\	4ryy	2e/	2c\
!LO:TX:t=P:problem=zapisane ołówkiem	!	!	!
!LO:SIC:o=4G\	!LO:SIC:o=4AA/	!	!
4G	4AA	.	.
!LO:SIC:o=4F#\	!	!	!
4F#	4D\	2f#/	2A\
!LO:SIC:o=4D\	!	!	!
4D	4C\	.	.
!LO:SIC:o=2E;\	!LO:SIC:o=2BB;\	!	!LO:SIC:o=2G;\
2E;	2BB	2g;/	2G
4BB\	2ryy	2dd/	2F#\
4AA\	.	.	.
*v	*v	*	*
=7	=7	=7
4GG\	2b/	2G\
4AA\	.	.
4BB\	2g/	2g\
4E\	.	.
4C\	2a/	[2e\
4BB\	.	.
4AA\	2cc/	2e\]
4C\	.	.
=8	=8	=8
4D\	2b/	[2d\
4E\	.	.
4F#\	2a/	2d\]
4D\	.	.
!	!	!LO:SIC:o=2B;\
2G;\	2g;/	2B
!	!LO:TX:t=P:problem=niepełna miara w takcie	!
2ryy	2ryy	2ryy
*	*v	*v
==	==
*-	*-
!!!system-decoration: {(s1,s2)}
!!!filter-modern: sic -sq | shed -e "s/TX(.*):t=P:/tx$1:t=P:/LG" |  modori -m
!!!ENC: Anastazja Marusiak
!!!END: 2021-11-12
!!!EED: Anastazja Marusiak
!!!EEV: 2021-11-12
!!!ENC-modern: Andrzej Borzym
!!!END-modern: 2022-08-29
